X:1
T:This little light of mine
M:4/4
L:1/8
R:Traditional spirital
C:Harry Dixon Loes (~1925)
K:Dmin
"F" C2 FF F2 G2 | F8| A2 AAA G3 | "F7" F8|
w:This litt-le light of mine I'm gon-na let it shine
"Bb" D2 FF F2 G2 | F8| F2 FFF D3 | "F" C8 |
w:This litt-le light of mine I'm gon-na let it shine
"F" C2 FF F2 G2 | F8| "A7" A2 AAA G3 | "Dm" F4 F G3|
w:This litt-le light of mine I'm gon-na let it shine. Let it
"F" A4 A A3 | "C7" G4 A G3| "F" (F8|F2) z2 z4 ||
w:shine, let it shine, let it shine.
